src/main/webapp/resources/showcase/images/layouts/poseidon-logo.svg

<?xml version="1.0" encoding="UTF-8"?>
<svg width="29px" height="32px" viewBox="0 0 29 32" version="1.1" xmlns="http://www.w3.org/2000/svg" xmlns:xlink="http://www.w3.org/1999/xlink">
    <title>icon-poseidon</title>
    <defs>
        <linearGradient x1="50%" y1="0%" x2="50%" y2="100%" id="linearGradient-1">
            <stop stop-color="#5CACF4" offset="0%"></stop>
            <stop stop-color="#1B74C5" offset="100%"></stop>
        </linearGradient>
    </defs>
    <g id="Dashboard" stroke="none" stroke-width="1" fill="none" fill-rule="evenodd">
        <g id="Dashboard-/-Default" transform="translate(-14.000000, -11.000000)" fill="url(#linearGradient-1)" fill-rule="nonzero">
            <g id="icon-poseidon" transform="translate(14.000000, 11.000000)">
                <path d="M14.713651,0.0833000057 L18.3449012,2.80812019 L16.6646211,5.04756034 L15.93972,4.50430001 L15.93672,17.5943 L21.3445415,19.5644413 L25.0455117,1.82098012 L28.980282,5.73251039 L28,8 L26.7325818,7.44695051 L23.4253616,23.3023016 L15.93672,20.5753 L15.9343811,31.0237823 L13.4843809,31.0237823 L13.48672,20.5633 L5.96638041,23.3023016 L2.66735018,7.44695051 L1,8 L0.419720029,5.73251039 L4.3558903,1.81972012 L8.04860055,19.5644413 L13.48672,17.5823 L13.48972,4.50030001 L12.7613509,5.04756034 L11.0810708,2.80812019 L14.713651,0.0833000057 Z" id="Path-2"></path>
            </g>
        </g>
    </g>
</svg>

<svg width="29" height="32" xmlns="http://www.w3.org/2000/svg"><defs><linearGradient x1="50%" y1="0%" x2="50%" y2="100%" id="a"><stop stop-color="#5CACF4" offset="0%"/><stop stop-color="#1B74C5" offset="100%"/></linearGradient></defs><path d="M14.714.083l3.63 2.725-1.68 2.24-.724-.544-.003 13.09 5.408 1.97 3.7-17.743 3.935 3.912L28 8l-1.267-.553-3.308 15.855-7.488-2.727-.003 10.449h-2.45l.003-10.46-7.52 2.738-3.3-15.855L1 8 .42 5.733 4.356 1.82l3.693 17.744 5.438-1.982L13.49 4.5l-.729.548-1.68-2.24L14.714.083z" fill="url(#a)"/></svg>
